packages/axiom-materials/src/icon_svgs/reddit-mono.svg

<svg height="16" viewBox="0 0 16 16" width="16" xmlns="http://www.w3.org/2000/svg"><path d="m8 0c4.41825 0 8 3.58175 8 8s-3.58175 8-8 8-8-3.58175-8-8 3.58175-8 8-8zm3.28775 3.125c-.327375 0-.60775.1905-.744125.465125l-1.93875-.412125-.05436111-.00439352c-.03616667.00190741-.07155556.01335185-.10238889.03351852-.046375.03-.078875.077375-.090375.131375l-.5935 2.79-.28424863.0138721c-1.12742445.07901252-2.13600137.43751252-2.88150137.9746279-.209625-.201125-.4935-.32525-.806875-.32525-.644375 0-1.166625.52225-1.166625 1.166625 0 .474125.28325.88125.68925 1.06375-.018.116-.027875.233625-.027875.352875 0 1.795 2.089375 3.25 4.66675 3.25 2.57725 0 4.666625-1.455 4.666625-3.25 0-.1185-.009625-.235375-.027375-.3505.408625-.1815.694-.590125.694-1.066125 0-.644375-.52225-1.166625-1.166625-1.166625-.3145 0-.599375.125-.809125.327375-.7975-.5755-1.89625-.947125-3.12-.989875l.531375-2.500375 1.736375.369125.0122248.10833717c.0697422.38931995.4076294.68541283.8171502.68541283.46025 0 .83325-.373125.83325-.833375s-.373-.833375-.83325-.833375zm-5.310875 7.56325c.08425-.08425.221-.084375.305375 0 .3585.3585 1.125375.48575 1.673125.48575s1.31475-.12725 1.673875-.485875c.0845-.08425.221125-.084125.305375.00025s.08425.221125-.00025.305375c-.53083333.5301333-1.51562444.6039133-1.90504741.6113945h-.14795174c-.38962363-.0074817-1.37437585-.0812695-1.90462585-.6115195-.08425-.08425-.08425-.221.000125-.305375zm3.810875-2.729875c.4595 0 .83325.374.83325.8335s-.37375.833375-.83325.833375-.833375-.373875-.833375-.833375.373875-.8335.833375-.8335zm-3.666375 0c.45925 0 .833.373875.833.833375 0 .459375-.37375.83325-.833.83325-.459625 0-.833625-.373875-.833625-.83325 0-.4595.374-.833375.833625-.833375z"/></svg>

<?xml version="1.0" encoding="UTF-8"?>
<svg width="16px" height="16px" viewBox="0 0 16 16" version="1.1" xmlns="http://www.w3.org/2000/svg" xmlns:xlink="http://www.w3.org/1999/xlink">
    <g id="Page-1" stroke="none" stroke-width="1" fill="none" fill-rule="evenodd">
        <g id="SVG" fill="#000000" fill-rule="nonzero">
            <path d="M8,0 C12.41825,0 16,3.58175 16,8 C16,12.41825 12.41825,16 8,16 C3.58175,16 0,12.41825 0,8 C0,3.58175 3.58175,0 8,0 Z M11.28775,3.125 C10.960375,3.125 10.68,3.3155 10.543625,3.590125 L10.543625,3.590125 L8.604875,3.178 L8.55051389,3.17360648 C8.51434722,3.17551389 8.47895833,3.18695833 8.448125,3.207125 C8.40175,3.237125 8.36925,3.2845 8.35775,3.3385 L8.35775,3.3385 L7.76425,6.1285 L7.48000137,6.1423721 C6.35257692,6.22138462 5.344,6.57988462 4.5985,7.117 C4.388875,6.915875 4.105,6.79175 3.791625,6.79175 C3.14725,6.79175 2.625,7.314 2.625,7.958375 C2.625,8.4325 2.90825,8.839625 3.31425,9.022125 C3.29625,9.138125 3.286375,9.25575 3.286375,9.375 C3.286375,11.17 5.37575,12.625 7.953125,12.625 C10.530375,12.625 12.61975,11.17 12.61975,9.375 C12.61975,9.2565 12.610125,9.139625 12.592375,9.0245 C13.001,8.843 13.286375,8.434375 13.286375,7.958375 C13.286375,7.314 12.764125,6.79175 12.11975,6.79175 C11.80525,6.79175 11.520375,6.91675 11.310625,7.119125 C10.513125,6.543625 9.414375,6.172 8.190625,6.12925 L8.190625,6.12925 L8.722,3.628875 L10.458375,3.998 L10.4705998,4.10633717 C10.540342,4.49565712 10.8782292,4.79175 11.28775,4.79175 C11.748,4.79175 12.121,4.418625 12.121,3.958375 C12.121,3.498125 11.748,3.125 11.28775,3.125 Z M5.976875,10.68825 C6.061125,10.604 6.197875,10.603875 6.28225,10.68825 C6.64075,11.04675 7.407625,11.174 7.955375,11.174 C8.503125,11.174 9.270125,11.04675 9.62925,10.688125 C9.71375,10.603875 9.850375,10.604 9.934625,10.688375 C10.018875,10.77275 10.018875,10.9095 9.934375,10.99375 C9.40354167,11.5238833 8.41875056,11.5976633 8.02932759,11.6051445 L8.02932759,11.6051445 L7.88137585,11.6051445 C7.49175222,11.5976628 6.507,11.523875 5.97675,10.993625 C5.8925,10.909375 5.8925,10.772625 5.976875,10.68825 Z M9.78775,7.958375 C10.24725,7.958375 10.621,8.332375 10.621,8.791875 C10.621,9.251375 10.24725,9.62525 9.78775,9.62525 C9.32825,9.62525 8.954375,9.251375 8.954375,8.791875 C8.954375,8.332375 9.32825,7.958375 9.78775,7.958375 Z M6.121375,7.958375 C6.580625,7.958375 6.954375,8.33225 6.954375,8.79175 C6.954375,9.251125 6.580625,9.625 6.121375,9.625 C5.66175,9.625 5.28775,9.251125 5.28775,8.79175 C5.28775,8.33225 5.66175,7.958375 6.121375,7.958375 Z" id="Combined-Shape"></path>
        </g>
    </g>
</svg>
